symbols/default/15.svg

<svg xmlns="http://www.w3.org/2000/svg" fill="none" viewBox="0 0 100 100">
  <g clip-path="url(#a)">
    <path fill="#DDD" fill-rule="evenodd" d="M81.3 42.9C79.4 31.6 69.4 23 57.7 23c-9.1 0-17.3 5.1-21.3 13.1-1.2-.5-2.4-.7-3.6-.7-4.2 0-7.8 2.5-9.2 6.2-.6-.1-1.1-.1-1.7-.1-4.1 0-7.9 1.6-10.7 4.5C8.5 48.8 7 52.4 7 56.2v.2c.1 4.1 1.7 7.8 4.6 10.5 2.7 2.7 6.4 4.2 10.3 4.2h55.7c7.9 0 14.4-6.4 14.4-14.3 0-6.6-4.5-12.3-10.7-13.9Z" clip-rule="evenodd"/>
    <path fill="url(#b)" fill-rule="evenodd" d="M81.3 42.9C79.4 31.6 69.4 23 57.7 23c-9.1 0-17.3 5.1-21.3 13.1-1.2-.5-2.4-.7-3.6-.7-4.2 0-7.8 2.5-9.2 6.2-.6-.1-1.1-.1-1.7-.1-4.1 0-7.9 1.6-10.7 4.5C8.5 48.8 7 52.4 7 56.2v.2c.1 4.1 1.7 7.8 4.6 10.5 2.7 2.7 6.4 4.2 10.3 4.2h55.7c7.9 0 14.4-6.4 14.4-14.3 0-6.6-4.5-12.3-10.7-13.9Z" clip-rule="evenodd" opacity=".6" style="mix-blend-mode:multiply"/>
    <g filter="url(#c)" opacity=".3" style="mix-blend-mode:multiply">
      <path fill="#B6B6B6" d="M29.5 64c1.787 0 24.848-1.272 26.48-2 2.23-.994-2.39-6.972 0-7.47 1.08-.224 2.667-.927 2.667-.927s4.352-1.602 5.103-1.602c.75 0 .374-2.964.14-4.81l-.14-1.32c0-.87-2.592-2.674-3-4.87-.284-1.527.424-3.585.276-3.968 0 0-.05-.029-.036-.032.014-.004.026.007.036.032.112.053.922.327.922.327 1.948.66 5.03 1.74 7.802 3.64 1.658 1.138 3.941 3.314 3.941 3.314s1.645 1.272 2.059 1.687c1 1 4 4 6 4h5L89 51.59l.5 3.21c0 7.9-6.5 14.3-14.4 14.3H18.5S23 64 29.5 64Z"/>
    </g>
    <path fill="#ACACAC" d="M88.7 79H14.3c-.7 0-1.3-.7-1.3-1.5s.6-1.5 1.3-1.5h74.4c.7 0 1.3.7 1.3 1.5s-.6 1.5-1.3 1.5ZM86.7 95H12.3c-.7 0-1.3-.7-1.3-1.5s.6-1.5 1.3-1.5h74.4c.7 0 1.3.7 1.3 1.5s-.6 1.5-1.3 1.5ZM76.7 87H2.3c-.7 0-1.3-.7-1.3-1.5S1.6 84 2.3 84h74.4c.7 0 1.3.7 1.3 1.5s-.6 1.5-1.3 1.5Z"/>
  </g>
  <defs>
    <linearGradient id="b" x1="47.5" x2="49.5" y1="38.5" y2="71.1" gradientUnits="userSpaceOnUse">
      <stop offset=".484" stop-color="#fff" stop-opacity="0"/>
      <stop offset="1" stop-color="#B3B2B2"/>
    </linearGradient>
    <clipPath id="a">
      <path fill="#fff" d="M0 0h100v100H0z"/>
    </clipPath>
    <filter id="c" width="85" height="46.101" x="11.5" y="30" color-interpolation-filters="sRGB" filterUnits="userSpaceOnUse">
      <feFlood flood-opacity="0" result="BackgroundImageFix"/>
      <feBlend in="SourceGraphic" in2="BackgroundImageFix" result="shape"/>
      <feGaussianBlur result="effect1_foregroundBlur_149_1407" stdDeviation="3.5"/>
    </filter>
  </defs>
</svg>

<svg width="100" height="100" viewBox="0 0 100 100" fill="none" xmlns="http://www.w3.org/2000/svg">
<g clip-path="url(#clip0_149_1407)">
<path fill-rule="evenodd" clip-rule="evenodd" d="M81.3 42.9C79.4 31.6 69.4 23 57.7 23C48.6 23 40.4 28.1 36.4 36.1C35.2 35.6 34 35.4 32.8 35.4C28.6 35.4 25 37.9 23.6 41.6C23 41.5 22.5 41.5 21.9 41.5C17.8 41.5 14 43.1 11.2 46C8.5 48.8 7 52.4 7 56.2V56.4C7.1 60.5 8.7 64.2 11.6 66.9C14.3 69.6 18 71.1 21.9 71.1H77.6C85.5 71.1 92 64.7 92 56.8C92 50.2 87.5 44.5 81.3 42.9Z" fill="#DDDDDD"/>
<g opacity="0.6">
<path fill-rule="evenodd" clip-rule="evenodd" d="M81.3 42.9C79.4 31.6 69.4 23 57.7 23C48.6 23 40.4 28.1 36.4 36.1C35.2 35.6 34 35.4 32.8 35.4C28.6 35.4 25 37.9 23.6 41.6C23 41.5 22.5 41.5 21.9 41.5C17.8 41.5 14 43.1 11.2 46C8.5 48.8 7 52.4 7 56.2V56.4C7.1 60.5 8.7 64.2 11.6 66.9C14.3 69.6 18 71.1 21.9 71.1H77.6C85.5 71.1 92 64.7 92 56.8C92 50.2 87.5 44.5 81.3 42.9Z" fill="url(#paint0_linear_149_1407)" style="mix-blend-mode:multiply"/>
</g>
<path d="M88.7 79H14.3C13.6 79 13 78.3 13 77.5C13 76.7 13.6 76 14.3 76H88.7C89.4 76 90 76.7 90 77.5C90 78.3 89.4 79 88.7 79Z" fill="#ACACAC"/>
<path d="M86.7 95H12.3C11.6 95 11 94.3 11 93.5C11 92.7 11.6 92 12.3 92H86.7C87.4 92 88 92.7 88 93.5C88 94.3 87.4 95 86.7 95Z" fill="#ACACAC"/>
<path d="M76.7 87H2.3C1.6 87 1 86.3 1 85.5C1 84.7 1.6 84 2.3 84H76.7C77.4 84 78 84.7 78 85.5C78 86.3 77.4 87 76.7 87Z" fill="#ACACAC"/>
</g>
<defs>
<linearGradient id="paint0_linear_149_1407" x1="47.5" y1="38.5" x2="49.5" y2="71.1" gradientUnits="userSpaceOnUse">
<stop offset="0.484375" stop-color="white" stop-opacity="0"/>
<stop offset="1" stop-color="#B3B2B2"/>
</linearGradient>
<clipPath id="clip0_149_1407">
<rect width="100" height="100" fill="white"/>
</clipPath>
</defs>
</svg>
